X: 3
T: Wing Commander Donald Mackenzie's
C: Phil Cunningham
M: C|
L: 1/8
R: reel
K: F#min
|:\
"A"cE ~E2 cEBE | "F#m"AFFE FAEA |\
"D"F2FE FGAB | "E7"cBAB cffe ||\
"A"cE ~E2 cEBE | "F#m"AFFE FAEA |
"D"F2FE FGAB |[1 "E7"~c2BG "A"A3B :|\
[2 "E7"~c2Bc "A"Aa ~a2 ::\
"A"aefe c2Bc | "F#m"AFEF ABce |\
"D"faba fbaf |
"E7"ecAB BAce ||\
"A"aefe c2Bc | "F#m"AFEF ABce | "D"faba fbaf |\
[1 "E7"ecBc "A"Aa ~a2 :|[2 "E7"ecBc "A"A3B |]
%%text Choke the ending!

